images/rsv.svg

<svg height="250" viewBox="0 0 250 250" width="250" xmlns="http://www.w3.org/2000/svg"><path d="m250 125c0 69.035156-55.964844 125-125 125s-125-55.964844-125-125 55.964844-125 125-125 125 55.964844 125 125zm0 0"/><path d="m170.65625 175.339844c-7.023438 0-13.351562.136718-19.667969-.144532-.960937-.042968-2.140625-1.898437-2.695312-3.144531-4.5-10.09375-8.957031-20.207031-13.21875-30.402343-1.082031-2.597657-2.519531-3.5625-5.300781-3.414063-3.988282.214844-8 .054687-12.414063.054687-.105469 1.972657-.261719 3.578126-.269531 5.183594-.023438 9.40625-.105469 18.8125.042968 28.21875.042969 2.917969-.9375 3.863282-3.835937 3.75-5.097656-.199218-10.210937-.054687-15.835937-.054687v-37.511719c-5.476563 0-10.4375-.160156-15.382813.054688-3.347656.144531-4.894531-.839844-4.636719-4.421876.25-3.441406.132813-6.917968.03125-10.371093-.074218-2.5.980469-3.46875 3.46875-3.421875 5.257813.09375 10.523438.027344 16.097656.027344v-9.277344c-4.957031 0-9.90625-.167969-14.835937.058594-3.542969.164062-5.160156-.933594-4.898437-4.675782.242187-3.441406.132812-6.914062.027343-10.371094-.066406-2.332031.917969-3.203124 3.214844-3.164062 5.261719.082031 10.523437.023438 16.53125.023438 0-4.441407.136719-8.652344-.046875-12.855469-.121094-2.875.878906-3.832031 3.808594-3.8125 15.542968.117187 31.085937-.046875 46.632812.089843 11.097656.097657 20 9.066407 20.382813 20.542969.25 7.597657.203125 15.214844 0 22.820313-.207031 7.773437-3.484375 13.898437-10.839844 17.242187-2.5625 1.164063-2.171875 2.570313-1.253906 4.59375 4.378906 9.691407 8.664062 19.421875 12.957031 29.15625.652344 1.457031 1.121094 2.992188 1.9375 5.226563zm-53.171875-80.769532v25.429688c8.417969 0 16.441406.082031 24.460937-.039062 3.75-.054688 5.960938-2.324219 6.160157-5.964844.242187-4.550782.238281-9.109375-.011719-13.65625-.175781-3.203125-1.984375-5.644532-5.4375-5.714844-8.285156-.164062-16.578125-.054688-25.171875-.054688zm0 0" fill="#fff"/></svg>

<svg xmlns="http://www.w3.org/2000/svg" xmlns:xlink="http://www.w3.org/1999/xlink" width="250px" height="250px" viewBox="0 0 250 250" version="1.1">
<g id="surface1">
<path style=" stroke:none;fill-rule:nonzero;fill:rgb(0%,0%,0%);fill-opacity:1;" d="M 250 125 C 250 194.035156 194.035156 250 125 250 C 55.964844 250 0 194.035156 0 125 C 0 55.964844 55.964844 0 125 0 C 194.035156 0 250 55.964844 250 125 Z M 250 125 "/>
<path style=" stroke:none;fill-rule:nonzero;fill:rgb(100%,100%,100%);fill-opacity:1;" d="M 170.65625 175.339844 C 163.632812 175.339844 157.304688 175.476562 150.988281 175.195312 C 150.027344 175.152344 148.847656 173.296875 148.292969 172.050781 C 143.792969 161.957031 139.335938 151.84375 135.074219 141.648438 C 133.992188 139.050781 132.554688 138.085938 129.773438 138.234375 C 125.785156 138.449219 121.773438 138.289062 117.359375 138.289062 C 117.253906 140.261719 117.097656 141.867188 117.089844 143.472656 C 117.066406 152.878906 116.984375 162.285156 117.132812 171.691406 C 117.175781 174.609375 116.195312 175.554688 113.296875 175.441406 C 108.199219 175.242188 103.085938 175.386719 97.460938 175.386719 L 97.460938 137.875 C 91.984375 137.875 87.023438 137.714844 82.078125 137.929688 C 78.730469 138.074219 77.183594 137.089844 77.441406 133.507812 C 77.691406 130.066406 77.574219 126.589844 77.472656 123.136719 C 77.398438 120.636719 78.453125 119.667969 80.941406 119.714844 C 86.199219 119.808594 91.464844 119.742188 97.039062 119.742188 L 97.039062 110.464844 C 92.082031 110.464844 87.132812 110.296875 82.203125 110.523438 C 78.660156 110.6875 77.042969 109.589844 77.304688 105.847656 C 77.546875 102.40625 77.4375 98.933594 77.332031 95.476562 C 77.265625 93.144531 78.25 92.273438 80.546875 92.3125 C 85.808594 92.394531 91.070312 92.335938 97.078125 92.335938 C 97.078125 87.894531 97.214844 83.683594 97.03125 79.480469 C 96.910156 76.605469 97.910156 75.648438 100.839844 75.667969 C 116.382812 75.785156 131.925781 75.621094 147.472656 75.757812 C 158.570312 75.855469 167.472656 84.824219 167.855469 96.300781 C 168.105469 103.898438 168.058594 111.515625 167.855469 119.121094 C 167.648438 126.894531 164.371094 133.019531 157.015625 136.363281 C 154.453125 137.527344 154.84375 138.933594 155.761719 140.957031 C 160.140625 150.648438 164.425781 160.378906 168.71875 170.113281 C 169.371094 171.570312 169.839844 173.105469 170.65625 175.339844 Z M 117.484375 94.570312 L 117.484375 120 C 125.902344 120 133.925781 120.082031 141.945312 119.960938 C 145.695312 119.90625 147.90625 117.636719 148.105469 113.996094 C 148.347656 109.445312 148.34375 104.886719 148.09375 100.339844 C 147.917969 97.136719 146.109375 94.695312 142.65625 94.625 C 134.371094 94.460938 126.078125 94.570312 117.484375 94.570312 Z M 117.484375 94.570312 "/>
</g>
</svg>
